modules/themify-icons/icons/align-right.svg

<?xml version="1.0" encoding="utf-8"?>
<!-- Generated by IcoMoon.io -->
<!DOCTYPE svg PUBLIC "-//W3C//DTD SVG 1.1//EN" "http://www.w3.org/Graphics/SVG/1.1/DTD/svg11.dtd">
<svg version="1.1" xmlns="http://www.w3.org/2000/svg" xmlns:xlink="http://www.w3.org/1999/xlink" width="17" height="17" viewBox="0 0 17 17">
<g>
</g>
	<path d="M17 2v1h-17v-1h17zM3 7h14v-1h-14v1zM0 11h17v-1h-17v1zM7 15h10v-1h-10v1z" fill="#000000" />
</svg>

<svg xmlns="http://www.w3.org/2000/svg" width="17" height="17"><path d="M17 2v1H0V2h17zM3 7h14V6H3v1zm-3 4h17v-1H0v1zm7 4h10v-1H7v1z"/></svg>
